resources/modules/editor/src/svgs/tabs.svg

<!-- Generated by IcoMoon.io -->
<svg version="1.1" xmlns="http://www.w3.org/2000/svg" width="32" height="32" viewBox="0 0 32 32">
<title>tabs</title>
<path d="M31.616 8.832l-1.344-3.552c-0.288-0.768-1.024-1.28-1.856-1.28h-6.112c-0.672 0-1.28 0.32-1.632 0.832-0.384-0.512-0.96-0.832-1.632-0.832h-6.080c-0.672 0-1.248 0.32-1.632 0.832-0.352-0.512-0.96-0.832-1.632-0.832h-6.112c-0.832 0-1.568 0.512-1.856 1.28l-1.44 3.84c-0.192 0.512-0.288 1.024-0.288 1.568v15.296c0 1.12 0.896 2.016 2.016 2.016h28c1.088 0 1.984-0.896 1.984-2.016v-16c0-0.416-0.16-0.832-0.384-1.152zM22.304 5.344h6.112c0.288 0 0.512 0.16 0.64 0.416l0.832 2.24h-8.064l-0.448-1.344 0.288-0.864c0.096-0.288 0.352-0.448 0.64-0.448zM12.96 5.344h6.080c0.288 0 0.544 0.16 0.64 0.448l0.736 2.208h-7.936l-0.448-1.344 0.288-0.864c0.096-0.288 0.352-0.448 0.64-0.448zM30.656 25.984c0 0.384-0.288 0.672-0.64 0.672h-28c-0.384 0-0.672-0.288-0.672-0.672v-15.296c0-0.384 0.064-0.736 0.192-1.088l1.44-3.84c0.096-0.256 0.32-0.416 0.608-0.416h6.112c0.288 0 0.544 0.16 0.64 0.448l1.024 3.072c0.096 0.288 0.352 0.48 0.64 0.48h18.016c0.16 0 0.32 0.064 0.416 0.16l0.032 0.096c0.032 0.064 0.096 0.128 0.16 0.192 0.032 0.064 0.032 0.128 0.032 0.192v16z"></path>
</svg>

<svg width="32" height="32" viewBox="0 0 32 32" fill="none" xmlns="http://www.w3.org/2000/svg">
<g clip-path="url(#clip0_4010_949)">
<path d="M31.616 8.832L30.272 5.28C29.984 4.512 29.248 4 28.416 4H22.304C21.632 4 21.024 4.32 20.672 4.832C20.288 4.32 19.712 4 19.04 4H12.96C12.288 4 11.712 4.32 11.328 4.832C10.976 4.32 10.368 4 9.696 4H3.584C2.752 4 2.016 4.512 1.728 5.28L0.288 9.12C0.096 9.632 0 10.144 0 10.688V25.984C0 27.104 0.896 28 2.016 28H30.016C31.104 28 32 27.104 32 25.984V9.984C32 9.568 31.84 9.152 31.616 8.832V8.832ZM22.304 5.344H28.416C28.704 5.344 28.928 5.504 29.056 5.76L29.888 8H21.824L21.376 6.656L21.664 5.792C21.76 5.504 22.016 5.344 22.304 5.344V5.344ZM12.96 5.344H19.04C19.328 5.344 19.584 5.504 19.68 5.792L20.416 8H12.48L12.032 6.656L12.32 5.792C12.416 5.504 12.672 5.344 12.96 5.344V5.344ZM30.656 25.984C30.656 26.368 30.368 26.656 30.016 26.656H2.016C1.632 26.656 1.344 26.368 1.344 25.984V10.688C1.344 10.304 1.408 9.952 1.536 9.6L2.976 5.76C3.072 5.504 3.296 5.344 3.584 5.344H9.696C9.984 5.344 10.24 5.504 10.336 5.792L11.36 8.864C11.456 9.152 11.712 9.344 12 9.344H30.016C30.176 9.344 30.336 9.408 30.432 9.504L30.464 9.6C30.496 9.664 30.56 9.728 30.624 9.792C30.656 9.856 30.656 9.92 30.656 9.984V25.984Z" fill="black"/>
</g>
<defs>
<clipPath id="clip0_4010_949">
<rect width="32" height="32" fill="white"/>
</clipPath>
</defs>
</svg>
